X:38
T:A Greable Suprize
O:england
R:Jig
M:6/8
A:Westmorland
N:P12 1/2
K:A
B|ABA E2E|F2F E2E|ABA A2B|c3 e3|\
ABA E2E|F2F E2E|def ecA|B3 A:|
|:ABc cdc|cde ecA| GAB BcB|BcB BGE|\
ABc cdc|cde ecA|cea ecA|B3A2:|


